X:1
T:Allegro
T:Allegro
T:Erik Satie (1866 – 1925)
C:Erik Satie
%%score { ( 1 3 ) | 2 }
L:1/8
Q:1/4=144
M:4/4
K:G
V:1 treble nm="Piano" snm="Pno."
V:3 treble 
V:2 bass 
V:1
!f!"^Allegro" x x/ D/ G/^A/B/e/ | d2 [EG]2 F2 [B,D]2 | ^C2 x2 =C2 x2 | %3
 [B,G]2 z2 x x/ D/ G/^A/B/e/ | d2 [EG]2 F2 =F2 | [D^F]2 D2 ^CB, [CF]E | D2!p! [EG]2 F2 [B,D]2 | %7
 ^C2 x2 =C2 x2 | [B,G]2 z2 z4 |] %9
V:2
 G,,/D,/B,/ x/ x2 | z2 A,2 [D,C]2 E,2 | [A,,G,]2 z2 [D,F,]2 z2 | [G,,G,]2 z2 G,,/D,/B,/ x/ x2 | %4
 z2 ^A,2 [B,D]2 [^G,D]2 | A,2 [F,A,]2 [A,,G,]4 | [D,F,]2 A,2 [D,C]2 E,2 | [A,,G,]2 z2 [D,F,]2 z2 | %8
 [G,,G,]2 [G,,,G,,]2 z4 |] %9
V:3
 x4 | x2 .c.e !^!A2 .G.B | (E/^G/B/A/ e2) (C/G/B/A/ e).F | x8 | x2 .^c.g (ed) .B.d | BA- AG F2 A2 | %6
 x2 .c.d !^!A2 .G.B | (E/^G/B/A/ f).e (C/^G/B/A/ d).F | x8 |] %9

